X:1
T:Title
%%score { ( 1 3 ) | ( 2 4 ) }
L:1/8
Q:1/4=92
M:2/4
K:F
V:1 treble nm="Grand Piano"
V:3 treble 
V:2 bass 
V:4 bass 
V:1
 F>F A>A | [EG]2 F2 | c2 c2 | [Ec]4 | [CF]>[CF] [EG]>[EG] | [FA]2 [CF]2 | [EG]>[EG] [FA]>[FA] | %7
w: Robert~Lowry * * *|||||||
 [GB]2 [EG]2 | [FA]>[FA] [Fd]>[Fd] | [Fc]>[FA] [GB]>[B,EG] | [A,F]2 [CEA]>[CEA] | [CEG]4 | %12
w: |||||
 [CFA]>[CFA] [DFB]>[B,DG] | [A,CF]>[A,CF] [CEG]>[B,EG] | F4- | F4 |] %16
w: ||||
V:2
 [F,A,C]>[F,A,C] [F,CF]>[F,CF] | [C,B,]2 [F,A,]2 | F2 F2 | [C,G,]4 | [F,A,]>[F,A,] [C,C]>[C,C] | %5
 [F,C]2 [F,A,]2 | [C,C]>[C,C] [F,C]>[F,C] | [C,C]2 [C,C]2 | [F,C]>[F,C] [B,,B,]>[B,,B,] | %9
 [C,A,]>[C,C] [C,C]>C, | D,2 A,,>A,, | C,4 | F,>F, B,,>B,, | C,>C, C,>C, | z2 B,>B, | A,4 |] %16
V:3
 x4 | x4 | z z/ A,/ z z/ A,/ | x4 | x4 | x4 | x4 | x4 | x4 | x4 | x4 | x4 | x4 | x4 | A,2 D>D | %15
 C4 |] %16
V:4
 x4 | x4 | [F,A,]>F, [F,A,]>F, | x4 | x4 | x4 | x4 | x4 | x4 | x4 | x4 | x4 | x4 | x4 | F,4- | %15
 F,4 |] %16

